X:20
T:P\aa Hjemturen (S\onderhoning)
C:F.J. Aalto
%O:Sweden
R:S\onderhoning
Z:Bob Wyttenbach from Buffalo Gap tunebook
M:4/4
L:1/4
K:E %Transposed from D
P:A
B,|:"D"Efdc|B>AGB|"Em"AFCF|"A7"E>DCB,|"D"EEedc|
B>AGB|"Em"Ac"A7"FD|[1"D"E3B,:|[2"D"E3G|:"A7"FG/A/ B,/D/F/D/|
"D"E>FGB|"Em"AB/c/FE|"A7"DE/F/DB,|"Bm"EC/E/"Em"FG|
ABcf|[1"D"e2"A7"dc/d/|"D"e3G:|[2"D"e2"A7"fe/d/|"D"e3||
P:B
B,|:"D"EE/G/"A7"FF/A/|"D"GB"A7"A/G/F|"D"GA/B/ "A7"A/G/A/F/|"D"GE"A7"FB,|"D"EE/G/"A7"FF/A/|
"D"GB"A7"A/G/F|"Em"A/G/A/F/"A7"ED|[1F2"D"EB,:|[2"D"E3d/e/|:"A"fBBc/d/|
"D"e>fge|"Em"affe|"A"dc/d/BA|"D"GA/B/ "A7"F/G/A|
"G"cd/e/ "Em"f/g/ a/f/|"A"ed/e/fd|[1"D"e3d/e/:|[2"D"e4||
